build/img/icon-twitter.svg

<svg width="80" height="80" viewBox="0 0 80 80" fill="none" xmlns="http://www.w3.org/2000/svg">
<path d="M40 0C17.9286 0 0 17.9286 0 40C0 62.0714 17.9286 80 40 80C62.0714 80 80 62.0714 80 40C80 17.9286 62.0714 0 40 0ZM59.8571 33.5714C59.8571 34 59.8571 34.4286 59.8571 34.7857C59.8571 47.4286 50.2143 62 32.5714 62C27.1429 62 22.1429 60.4286 17.8571 57.7143C18.6429 57.7857 19.3571 57.8571 20.1429 57.8571C24.6429 57.8571 28.7857 56.2857 32.0714 53.7857C27.8571 53.7143 24.3571 50.9286 23.1429 47.1429C23.7143 47.2857 24.3571 47.2857 24.9286 47.2857C25.7857 47.2857 26.6429 47.1429 27.4286 46.9286C23.0714 46.0714 19.7143 42.2143 19.7143 37.5714V37.4286C21 38.1429 22.5 38.5714 24.0714 38.6429C21.5 36.9286 19.7857 34 19.7857 30.6429C19.7857 28.8571 20.2857 27.2143 21.0714 25.8571C25.7857 31.6429 32.8571 35.5 40.7857 35.8571C40.6429 35.1429 40.5714 34.4286 40.5714 33.6429C40.5714 28.3571 44.8571 24.0714 50.1429 24.0714C52.9286 24.0714 55.3571 25.2143 57.1429 27.0714C59.2857 26.6429 61.3571 25.8571 63.2143 24.7857C62.5 27 61 28.9286 59 30.0714C60.9286 29.8571 62.7857 29.2857 64.5 28.5714C63.2857 30.5714 61.7143 32.2857 59.8571 33.5714Z" fill="#2581D0"/>
</svg>

<svg width="80" height="80" fill="none" xmlns="http://www.w3.org/2000/svg"><path d="M40 0C17.929 0 0 17.929 0 40s17.929 40 40 40 40-17.929 40-40S62.071 0 40 0zm19.857 33.571v1.215C59.857 47.429 50.214 62 32.571 62c-5.428 0-10.428-1.571-14.714-4.286.786.072 1.5.143 2.286.143 4.5 0 8.643-1.571 11.928-4.071-4.214-.072-7.714-2.857-8.928-6.643.571.143 1.214.143 1.786.143a9.62 9.62 0 002.5-.357c-4.358-.858-7.715-4.715-7.715-9.358v-.142a9.927 9.927 0 004.357 1.214 9.592 9.592 0 01-3-12.786c4.715 5.786 11.786 9.643 19.715 10a11.093 11.093 0 01-.215-2.214c0-5.286 4.286-9.572 9.572-9.572 2.786 0 5.214 1.143 7 3a20.107 20.107 0 006.071-2.285C62.5 27 61 28.929 59 30.07c1.929-.214 3.786-.785 5.5-1.5-1.214 2-2.786 3.715-4.643 5z" fill="#2581D0"/></svg>
